X: 14
U:~=!turn!
M:C
L:1/8
K:D mixolydian
[2 B<dA<d (F<D)D>d |: B<ET(B>A) B<EE>e | B<ET(B>A) {/G}(F<D)D>d | B<ETB>A {/c}d>eT(f>e) | [1 {/^c}(d/^c/).B/.A/ {/c}d>A {/G}(F<D)D>d :|
[2 {/^c}(d/^c/).B/.A/ {/c}d>A {/G}F<DD>f || e/e/e {/f}e2 (e>f)(b>f) | e/e/e {/f}e2 f>da>f | e/e/e {/f}e2 (e>f)b>f | {/f}(g<e)b>e {/^c}(df/g/) a>f |
{/f}(g>e)(b>e) {/f}(g<e)(b>e) | {/f}(g<e)(b>e) {/^c}(df/g/) a<f | {/f}(g<e)(b<e) {/^c}d>eT(f>e) | {/^c}(d/^c/).B/.A/ {/c}d>A {/G}(F<D)D>{/^c}d ||


